X:4
T:Mazurka des Ecoliers de Saint Genest
I:last changed 14/2/2016
F:http://www.campin.me.uk/Music/Edinbal.abc
C:Gilles Chabenat
D:http://www.youtube.com/watch?v=rkaA1FNxvF4
M:9/8
L:1/8
%Q:3/8=124
P:AABBAA
K:EMin
P:A
E F2E|B3 B2c d2e|B3- B2B c2B|   A3 B2A G2F|[1 G3 E2:|\
                                           [2 E3- E2|]
P:B
e e2d|c3 c2B c2d|e3- e2e d2c|[1 B3 B2A B2c|   B2G E2:|\
                             [2 B3 A2G F2G|   F3- F2||

